src/images/icon-account.svg

<svg width="12" height="14" viewBox="0 0 12 14" fill="none" xmlns="http://www.w3.org/2000/svg">
<path fill-rule="evenodd" clip-rule="evenodd" d="M8 4C8 5.10457 7.10457 6 6 6C4.89543 6 4 5.10457 4 4C4 2.89543 4.89543 2 6 2C7.10457 2 8 2.89543 8 4ZM10 4C10 6.20914 8.20914 8 6 8C3.79086 8 2 6.20914 2 4C2 1.79086 3.79086 0 6 0C8.20914 0 10 1.79086 10 4ZM4 9C1.79086 9 0 10.7909 0 13V14H2V13C2 11.8954 2.89543 11 4 11H8C9.10457 11 10 11.8954 10 13V14H12V13C12 10.7909 10.2091 9 8 9H4Z" fill="white"/>
</svg>

<?xml version="1.0" encoding="UTF-8"?>
<svg fill="none" viewBox="0 0 12 14" xmlns="http://www.w3.org/2000/svg">
<path d="m8 4c0 1.1046-0.89543 2-2 2s-2-0.89543-2-2 0.89543-2 2-2 2 0.89543 2 2zm2 0c0 2.2091-1.7909 4-4 4s-4-1.7909-4-4 1.7909-4 4-4 4 1.7909 4 4zm-6 5c-2.2091 0-4 1.7909-4 4v1h2v-1c0-1.1046 0.89543-2 2-2h4c1.1046 0 2 0.8954 2 2v1h2v-1c0-2.2091-1.7909-4-4-4h-4z" clip-rule="evenodd" fill="#fff" fill-rule="evenodd"/>
</svg>
